X:1
T:Dies sind die heilgen
T:Balthasar Resinarius
T:Source : DDT 34---Leipzig---Breitkopf & Härtel---J.Wolf---1908. First print : Newe Deutsche Geistliche Gesenge---Wittemberg---G.Rhau---1544. Editor : André Vierendeels (01/08/17)
T:Notes : Original clefs : C1, C3, C3, F4 Original note values have been halved Editorial accidentals above the staff
T:Dies sind die heilgen
T:©
T:©
T:©
C:Balthasar Resinarius
Z:©
%%score [ 1 [ 2 3 ] 4 ]
L:1/8
Q:1/4=120
M:2/2
K:C
V:1 treble nm="Soprano" snm="S"
V:2 treble-8 nm="Tenor 1" snm="T 1"
V:3 treble-8 nm="Tenor 2" snm="T 2"
V:4 bass nm="Bass" snm="B"
V:1
 z8 | z8 | z8 | z4 G4 | G4 G4 | A4 G4 | G3 A B3 A/B/ | c4 z2 G2- |"^b" G2 FE D3 D | %9
w: |||Dies|sind die|heil- gen|ze- hen Ge- * *|bot, ze-|* * * hen Ge-|
"^-natural" EDEF G2 d2- | d2 d2 d4 | c4 G3 A | B2 c4 B2 | c2 BA B4 | A8 | z2 G4 FE | D2 E2 F3 D | %17
w: bot, _ _ _ _ die|_ uns gab|un- ser _|_ Her- *|* * * re|Gott,|Her- * *|* re Gott _|
 EDEF G2 G2 | A4 A4 | G4 D3 E | FEFG A3 G | E3 D EF G2- | GF F4 E2 | F4 z2 F2 | A3 B c4 | %25
w: _ _ _ _ _ durch|Mo- sen,|sei- * nen|Die- * * * * *||* * * ner|treu, hoch|auf dem Berg|
 z2 c4 BA | G4 A3 G |"^b" F6 ED |"^b" E3 F G2 A2- |"^#" AG G4 F2 | G8 |] %31
w: Si- na- *|i. Ky- ri-|e, _ _|_ _ _ e-|* * lei- *|son.|
V:2
 G4 G4 | G4 A4 | G4 G3 A | B3 A/B/ c2 c2 | c3 B G4 | c4 B3 c | d4 d4 | c2 A2 B4 | z2 G4 F2 | %9
w: Dies sind|die heil-|gen ze- hen|Ge- * * bot, dies|sind _ die|heil- * gen|ze- hen|Ge- * bot,|zehn Ge-|
 G2 g4 g2 | g4 f4 | c3 d e3 f | g2 e2 d4 | cdef g2 d2 | f8 | z4 z2 c2 | B2 G3 F FE | G2 g3 f e2- | %18
w: bot, die una|gab un-|ser _ Her- *||* * * * * re|Gott,|un-|ser Her- * re _|Gott durch _ Mo-|
 edcB A4 | B2 G2 A4 | A8 | z2 c3 Bcd | e2 c2 c4 | A2 d4 cB | A4 z2 c2- | cdef e4 |"^b" d2 e2 f4 | %27
w: ||sen,|sei- * * *|* nen Die-|* * ner _|treu, hoch|_ _ _ _ _|auf dem Berg|
 d6 d2 |"^b" c3 d e2 d2- | d2 c2 d4 | d8 |] %31
w: Si- na'i.|Ky- * ri- e,|_ e- lei-|son.|
V:3
 z8 | z8 | z8 | z8 | z8 | z4 G4 | G4 G4 | A4 G4 | G3 A B3 A/B/ | c6 BA | G4 z4 | z8 | z8 | %13
w: |||||Dies|sind die|heil- gen|ze- hen Ge- * *||bot,|||
 z2 c2 d4 | d4 c4 | G4 G2 A2 | B2 c4 B2 | c8- | c8 | z2 c2 d4 | d4 c4 | G8 | A4 G4 | F8 | %24
w: die uns|gab un-|ser Her- *|* * re|Gott|_|durch Mo-|sen, sei-|nen|Die- ner|treu,|
 z2 F2 A3 B | c8 | _B4 A4 | _B8 | G4 G2 F2- | F2 G2 A4 | G8 |] %31
w: hoch auf dem|Berg|Si- na-|i.|Ky- ri- e,|_ e- lei-|son.|
V:4
 z8 | C,8 | C,4 C,4 | D,4 C,4 | C,3 D, E,3 D,/E,/ | F,4 z4 | z8 |"^b" F,4 E,4- | E,2 D,C, D,4 | %9
w: |Dies|sind die|heil- gen|ze- hen Ge- * *|bot,||ze- hen|_ _ _ Ge-|
 C,4 z4 | z8 | C6 B,A, | G,8 | A,4 G,4 |"^-natural" D,3 E, F,3 E,/F,/ | G,2 E,4 D,C, | %16
w: bot,||die uns _|gab|un- ser|Her- * * * *||
 G,2 C,2 D,4 | C,4 z2 C2- | CB, A,G, F,4 |"^b" E,4 D,4 | D,3 C, A,,3 B,, | C,8 | C,8 | %23
w: * * re|Gott durch|_ _ Mo- * sen,|sei- nen|Die- * * *|ner|treu,|
"^b" z2 _B,,2 D,3 E, | F,4 z4 | z2 C,3 D,E,F, | G,4 F,4 |"^b" B,,8 | C,4 C,2 D,2- | D,2 _E,2 D,4 | %30
w: hoch auf dem|Berg|Si- * * *|* na-|i.|Ky- ri- e,|_ e- lei-|
 G,,8 |] %31
w: son.|

